dist/svgs/devui-icons/editor/text-align-center.svg

<svg xmlns="http://www.w3.org/2000/svg" viewBox="0 0 16 16"><path fill-rule="evenodd" d="M8.75 7v2H16v4H8.75v3h-1.5v-3H0V9h7.25V7H2V3h5.25V0h1.5v3H14v4H8.75zM1 10v2h14v-2H1zm2-6v2h10V4H3z"/></svg>

<?xml version="1.0" encoding="UTF-8"?>
<svg width="16px" height="16px" viewBox="0 0 16 16" version="1.1" xmlns="http://www.w3.org/2000/svg" xmlns:xlink="http://www.w3.org/1999/xlink">
    <title>edit icon/align layer to center</title>
    <desc>Created with Sketch.</desc>
    <g id="edit-icon/align-layer-to-center" stroke="none" stroke-width="1" fill="none" fill-rule="evenodd">
        <g id="释义_富文本编辑/text-align-center-16x16" fill="#293040">
            <path d="M8.75,7 L8.75,9 L16,9 L16,13 L8.75,13 L8.75,16 L7.25,16 L7.25,13 L0,13 L0,9 L7.25,9 L7.25,7 L2,7 L2,3 L7.25,3 L7.25,0 L8.75,0 L8.75,3 L14,3 L14,7 L8.75,7 Z M1,10 L1,12 L15,12 L15,10 L1,10 Z M3,4 L3,6 L13,6 L13,4 L3,4 Z" id="形状"></path>
        </g>
    </g>
</svg>
